Assets/Icons/gear.svg

<?xml version="1.0" encoding="UTF-8" standalone="no"?>
<!-- Uploaded to: SVG Repo, www.svgrepo.com, Transformed by: SVG Repo Mixer Tools -->

<svg
   width="128"
   height="128"
   viewBox="0 0 56 56"
   fill="none"
   version="1.1"
   id="svg2"
   xmlns="http://www.w3.org/2000/svg"
   xmlns:svg="http://www.w3.org/2000/svg">
  <defs
     id="defs2" />
  <g
     id="SVGRepo_iconCarrier"
     transform="matrix(-1.9736565,0,0,-1.9736565,55.631188,55.631188)">
    <path
       clip-rule="evenodd"
       d="m 14,20 c 3.3137,0 6,-2.6863 6,-6 0,-3.3137 -2.6863,-6 -6,-6 -3.3137,0 -6,2.6863 -6,6 0,3.3137 2.6863,6 6,6 z m 4,-6 c 0,2.2091 -1.7909,4 -4,4 -2.2091,0 -4,-1.7909 -4,-4 0,-2.2091 1.7909,-4 4,-4 2.2091,0 4,1.7909 4,4 z"
       fill="#ffffff"
       fill-rule="evenodd"
       id="path1" />
    <path
       clip-rule="evenodd"
       d="m 0,12.9996 v 2 c 0,1.5482 1.17261,2.8224 2.67809,2.983 0.12779,0.3633 0.27253,0.7185 0.43324,1.0647 -0.98649,1.1787 -0.92597,2.9367 0.18158,4.0443 l 1.41421,1.4142 c 1.08234,1.0823 2.78593,1.1648 3.96291,0.2473 0.43437,0.2157 0.8838,0.4059 1.34627,0.5687 C 10.1769,26.8273 11.4511,28 12.9993,28 h 2 c 1.5478,0 2.8218,-1.1721 2.9828,-2.6772 0.4203,-0.1478 0.8298,-0.3182 1.227,-0.5099 1.1732,0.8535 2.8253,0.7511 3.8835,-0.3071 l 1.4142,-1.4142 c 1.0582,-1.0582 1.1606,-2.7103 0.3072,-3.8835 0.1914,-0.3968 0.3617,-0.8058 0.5094,-1.2257 C 26.8282,17.8211 28,16.5472 28,14.9996 v -2 C 28,11.452 26.8282,10.1782 25.3234,10.0169 25.1605,9.55375 24.9701,9.10374 24.7541,8.66883 25.6708,7.49189 25.5882,5.78888 24.5061,4.70681 L 23.0919,3.29259 C 21.9846,2.18531 20.2271,2.12455 19.0485,3.1103 18.7017,2.94935 18.3459,2.80441 17.982,2.67647 17.8207,1.17177 16.5468,0 14.9993,0 h -2 C 11.4514,0 10.1773,1.17231 10.0164,2.6775 9.60779,2.8213 9.20936,2.98653 8.82251,3.17181 7.64444,2.12251 5.83764,2.16276 4.70782,3.29259 L 3.2936,4.7068 C 2.16377,5.83664 2.12352,7.64345 3.17285,8.82152 2.98737,9.20877 2.82199,9.60763 2.67809,10.0167 1.17261,10.1773 0,11.4515 0,12.9996 Z M 15.9993,3 c 0,-0.55228 -0.4477,-1 -1,-1 h -2 c -0.5523,0 -1,0.44772 -1,1 v 0.38269 c 0,0.47554 -0.3367,0.88007 -0.7934,1.01273 C 10.4966,4.60148 9.81974,4.88401 9.18495,5.23348 8.76836,5.46282 8.24425,5.41481 7.90799,5.07855 L 7.53624,4.70681 C 7.14572,4.31628 6.51256,4.31628 6.12203,4.7068 L 4.70782,6.12102 c -0.39053,0.39052 -0.39053,1.02369 0,1.41421 L 5.07958,7.90699 C 5.41584,8.24325 5.46385,8.76736 5.23451,9.18395 4.88485,9.8191 4.6022,10.4963 4.39611,11.2061 4.2635,11.6629 3.85894,11.9996 3.38334,11.9996 H 3 c -0.55228,0 -1,0.4478 -1,1 v 2 c 0,0.5523 0.44772,1 1,1 h 0.38334 c 0.4756,0 0.88015,0.3368 1.01277,0.7935 0.19343,0.6663 0.45431,1.3038 0.77474,1.9048 0.22117,0.4148 0.1701,0.9314 -0.1623,1.2638 l -0.30143,0.3015 c -0.39052,0.3905 -0.39052,1.0236 0,1.4142 l 1.41422,1.4142 c 0.39052,0.3905 1.02369,0.3905 1.41421,0 l 0.24332,-0.2433 c 0.34012,-0.3402 0.87168,-0.385 1.28992,-0.1475 0.66816,0.3796 1.38431,0.6844 2.13711,0.9031 0.4567,0.1326 0.7934,0.5372 0.7934,1.0127 V 25 c 0,0.5523 0.4477,1 1,1 h 2 c 0.5523,0 1,-0.4477 1,-1 v -0.3826 c 0,-0.4756 0.3368,-0.8802 0.7936,-1.0128 0.7103,-0.2061 1.388,-0.4889 2.0235,-0.8388 0.4166,-0.2293 0.9407,-0.1813 1.277,0.155 l 0.1708,0.1708 c 0.3905,0.3905 1.0237,0.3905 1.4142,0 l 1.4142,-1.4142 c 0.3905,-0.3906 0.3905,-1.0237 0,-1.4142 l -0.1708,-0.1708 c -0.3363,-0.3363 -0.3843,-0.8604 -0.1549,-1.277 0.3497,-0.6352 0.6323,-1.3124 0.8384,-2.0223 0.1326,-0.4567 0.5372,-0.7935 1.0128,-0.7935 H 25 c 0.5523,0 1,-0.4477 1,-1 v -2 c 0,-0.5522 -0.4477,-1 -1,-1 h -0.3819 c -0.4756,0 -0.8802,-0.3367 -1.0128,-0.7935 C 23.3866,10.4529 23.0817,9.73627 22.7019,9.06773 22.4643,8.64949 22.5092,8.11793 22.8493,7.77781 l 0.2426,-0.24258 c 0.3905,-0.39052 0.3905,-1.02369 0,-1.41421 L 21.6777,4.7068 c -0.3905,-0.39052 -1.0237,-0.39052 -1.4142,0 L 19.9628,5.00748 C 19.6304,5.33988 19.1137,5.39096 18.6989,5.16979 18.0976,4.84915 17.4596,4.58815 16.7929,4.39467 16.3361,4.2621 15.9993,3.85752 15.9993,3.38187 Z"
       fill="#ffffff"
       fill-rule="evenodd"
       id="path2" />
  </g>
</svg>

<!DOCTYPE svg PUBLIC "-//W3C//DTD SVG 1.1//EN" "http://www.w3.org/Graphics/SVG/1.1/DTD/svg11.dtd">
<!-- Uploaded to: SVG Repo, www.svgrepo.com, Transformed by: SVG Repo Mixer Tools -->
<svg width="64px" height="64px" viewBox="0 0 28 28" fill="none" xmlns="http://www.w3.org/2000/svg">
<g id="SVGRepo_bgCarrier" stroke-width="0"/>
<g id="SVGRepo_tracerCarrier" stroke-linecap="round" stroke-linejoin="round"/>
<g id="SVGRepo_iconCarrier">
<path clip-rule="evenodd" d="M14 20C17.3137 20 20 17.3137 20 14C20 10.6863 17.3137 8 14 8C10.6863 8 8 10.6863 8 14C8 17.3137 10.6863 20 14 20ZM18 14C18 16.2091 16.2091 18 14 18C11.7909 18 10 16.2091 10 14C10 11.7909 11.7909 10 14 10C16.2091 10 18 11.7909 18 14Z" fill="#FFFFFF" fill-rule="evenodd"/>
<path clip-rule="evenodd" d="M0 12.9996V14.9996C0 16.5478 1.17261 17.822 2.67809 17.9826C2.80588 18.3459 2.95062 18.7011 3.11133 19.0473C2.12484 20.226 2.18536 21.984 3.29291 23.0916L4.70712 24.5058C5.78946 25.5881 7.49305 25.6706 8.67003 24.7531C9.1044 24.9688 9.55383 25.159 10.0163 25.3218C10.1769 26.8273 11.4511 28 12.9993 28H14.9993C16.5471 28 17.8211 26.8279 17.9821 25.3228C18.4024 25.175 18.8119 25.0046 19.2091 24.8129C20.3823 25.6664 22.0344 25.564 23.0926 24.5058L24.5068 23.0916C25.565 22.0334 25.6674 20.3813 24.814 19.2081C25.0054 18.8113 25.1757 18.4023 25.3234 17.9824C26.8282 17.8211 28 16.5472 28 14.9996V12.9996C28 11.452 26.8282 10.1782 25.3234 10.0169C25.1605 9.55375 24.9701 9.10374 24.7541 8.66883C25.6708 7.49189 25.5882 5.78888 24.5061 4.70681L23.0919 3.29259C21.9846 2.18531 20.2271 2.12455 19.0485 3.1103C18.7017 2.94935 18.3459 2.80441 17.982 2.67647C17.8207 1.17177 16.5468 0 14.9993 0H12.9993C11.4514 0 10.1773 1.17231 10.0164 2.6775C9.60779 2.8213 9.20936 2.98653 8.82251 3.17181C7.64444 2.12251 5.83764 2.16276 4.70782 3.29259L3.2936 4.7068C2.16377 5.83664 2.12352 7.64345 3.17285 8.82152C2.98737 9.20877 2.82199 9.60763 2.67809 10.0167C1.17261 10.1773 0 11.4515 0 12.9996ZM15.9993 3C15.9993 2.44772 15.5516 2 14.9993 2H12.9993C12.447 2 11.9993 2.44772 11.9993 3V3.38269C11.9993 3.85823 11.6626 4.26276 11.2059 4.39542C10.4966 4.60148 9.81974 4.88401 9.18495 5.23348C8.76836 5.46282 8.24425 5.41481 7.90799 5.07855L7.53624 4.70681C7.14572 4.31628 6.51256 4.31628 6.12203 4.7068L4.70782 6.12102C4.31729 6.51154 4.31729 7.14471 4.70782 7.53523L5.07958 7.90699C5.41584 8.24325 5.46385 8.76736 5.23451 9.18395C4.88485 9.8191 4.6022 10.4963 4.39611 11.2061C4.2635 11.6629 3.85894 11.9996 3.38334 11.9996H3C2.44772 11.9996 2 12.4474 2 12.9996V14.9996C2 15.5519 2.44772 15.9996 3 15.9996H3.38334C3.85894 15.9996 4.26349 16.3364 4.39611 16.7931C4.58954 17.4594 4.85042 18.0969 5.17085 18.6979C5.39202 19.1127 5.34095 19.6293 5.00855 19.9617L4.70712 20.2632C4.3166 20.6537 4.3166 21.2868 4.70712 21.6774L6.12134 23.0916C6.51186 23.4821 7.14503 23.4821 7.53555 23.0916L7.77887 22.8483C8.11899 22.5081 8.65055 22.4633 9.06879 22.7008C9.73695 23.0804 10.4531 23.3852 11.2059 23.6039C11.6626 23.7365 11.9993 24.1411 11.9993 24.6166V25C11.9993 25.5523 12.447 26 12.9993 26H14.9993C15.5516 26 15.9993 25.5523 15.9993 25V24.6174C15.9993 24.1418 16.3361 23.7372 16.7929 23.6046C17.5032 23.3985 18.1809 23.1157 18.8164 22.7658C19.233 22.5365 19.7571 22.5845 20.0934 22.9208L20.2642 23.0916C20.6547 23.4821 21.2879 23.4821 21.6784 23.0916L23.0926 21.6774C23.4831 21.2868 23.4831 20.6537 23.0926 20.2632L22.9218 20.0924C22.5855 19.7561 22.5375 19.232 22.7669 18.8154C23.1166 18.1802 23.3992 17.503 23.6053 16.7931C23.7379 16.3364 24.1425 15.9996 24.6181 15.9996H25C25.5523 15.9996 26 15.5519 26 14.9996V12.9996C26 12.4474 25.5523 11.9996 25 11.9996H24.6181C24.1425 11.9996 23.7379 11.6629 23.6053 11.2061C23.3866 10.4529 23.0817 9.73627 22.7019 9.06773C22.4643 8.64949 22.5092 8.11793 22.8493 7.77781L23.0919 7.53523C23.4824 7.14471 23.4824 6.51154 23.0919 6.12102L21.6777 4.7068C21.2872 4.31628 20.654 4.31628 20.2635 4.7068L19.9628 5.00748C19.6304 5.33988 19.1137 5.39096 18.6989 5.16979C18.0976 4.84915 17.4596 4.58815 16.7929 4.39467C16.3361 4.2621 15.9993 3.85752 15.9993 3.38187V3Z" fill="#FFFFFF" fill-rule="evenodd"/>
</g>
</svg>
